!!!COM: Gustav Mahler
!!!CNT: Deutsch
!!!TXO: Deutsch
!!!OTL: "Der Schildwache Nachtlied"
!!!LYR: Des Knaben Wunderhorn
!!!OPR: Des Knaben Wunderhorn, Part 1
!!!ENC: O'Neal Douglas
!!!YOR: CD Sheet Music: Late Romantic German Lieder
!!!YOR: CD Sheet Music, LLC, 2001
!!!ODT: 1892/
!!NB: Vocal melody and text encoded.
**kern	**text
*staff1	*staff1
*clefG2	*
*k[]	*
*M4/4	*
8r	.
*MM120	*
=1	=1
6r	.
{12c	{Ich
(12c	kann
12e)	.
12g	und
2b	mag
=2	=2
6r	.
12c	nicht
12c	fro2h-
12e	.
12g	-lich
2cc}	sein!}
=3	=3
1r	.
=4	=4
8r	.
{8e	{Wenn
8e	al-
8e	-le
4e	Leu-
4e	-te
=5	=5
(4.a	schla-
16g	|
16f)	|
4e}	-fen,}
4r	.
=6	=6
4r	.
{(8c	{so
8d)	.
4e	muss
4f#	ich
=7	=7
2g	wa-
4d	-chen,
4d	ja,
=8	=8
2g	wa-
4d}	-chen!}
4r	.
=9	=9
1r	.
=10	=10
2r	.
4r	.
{4ee	{Muss
=11	=11
2.ee	trau-
4e	-rig
=12	=12
2.e}	sein!}
4r	.
=13	=13
1r	.
=14	=14
1r	.
=15	=15
2r	.
4r	.
{(8a	{Lieb'
8g)	|
=16	=16
*M6/4	*
4f#	Kna-
4a	-be,
4g	du
(4fn	musst
4a)	|
4g	nicht
=17	=17
(4c	trau-
4cc)	|
4b	-rig
2a	sein!
4g	Will
=18	=18
*M3/4	*
(4c	dei-
4a)	|
4g	-ner
=19	=19
*M4/4	*
4f#	war-
4b}	-ten}
4r	.
{4a	{im
=20	=20
*M3/4	*
(4c	Ro-
4a)	|
4g	-sen
=21	=21
*M4/4	*
4g#	gar-
4.ee	-ten!
8r	.
4dd	Im
=22	=22
(4a#	gru2-
2ff)	|
4ee	-nen
=23	=23
*M3/4	*
(4dd	Klee,
4cc)	|
4b	im
=24	=24
*M4/4	*
2a	gru2-
2B	-nen
=25	=25
*M3/4	*
2.c}	Klee!}
=26	=26
2.r	.
=27	=27
2.r	.
=28	=28
2.r	.
=29	=29
*M4/4	*
6r	.
{12c	{Zum
(12c	gru2-
12e)	|
12g	-nen
2b	Klee
=30	=30
6r	.
12c	da
(12c	geh'
12e)	|
12g	ich
2cc}	nicht!}
=31	=31
1r	.
=32	=32
4r	.
{4e	{Zum
4e	Waf-
4e	-fen-
=33	=33
2a	-gar-
4e}	-ten!}
4r	.
=34	=34
4r	.
{4e	{Voll
4a	Hel-
4b	-le-
=35	=35
1cc	-par-
=36	=36
4e}	-ten!}
4r	.
2r	.
=37	=37
4r	.
{4b	{Bin
4.b	ich
8b	ge-
=38	=38
2b}	-stellt!}
2r	.
=39	=39
4r	.
{12e	{Bin
12g#	ich
12b	ge-
[2ee	-stellt!
=40	=40
1ee_	|
=41	=41
1ee_	|
=42	=42
4ee]}	|}
4r	.
2r	.
=43	=43
1r	.
=44	=44
1r	.
=45	=45
2r	.
4r	.
{(8a	{Stehst
8g)	.
=46	=46
*M6/4	*
(4f#	du
4a)	|
4g	im
(4fn	Feld,
4a)	|
4g	so
=47	=47
(4c	helf'
4cc)	|
4b	dir
2a}	Gott!}
{4g	{An
=48	=48
*M3/4	*
(4c	Got-
4a)	|
4g	-tes
=49	=49
*M4/4	*
4f#	Se-
4.b	-gen
8r	.
4a	ist
=50	=50
*M3/4	*
4c	al-
4a	-les-
4g	-ge-
=51	=51
*M4/4	*
4g#	-le-
4.ee}	-gen!}
8r	.
{4dd	{Wer's
=52	=52
(4a#	glau-
2ff)	|
4ee	-ben
=53	=53
*M3/4	*
(4dd	tut!
4cc)	|
4b	Wer's
=54	=54
*M4/4	*
2a	glau-
2B	-ben
=55	=55
*M3/4	*
4c}	tut!}
4r	.
4r	.
=56	=56
2.r	.
=57	=57
2.r	.
=58	=58
2.r	.
=59	=59
*M4/4	*
1r	.
=60	=60
1r	.
=61	=61
6r	.
{12c	{Wer's
(12c	glau-
12e)	|
12g	-ben
2b	tut,
=62	=62
6r	.
12c	ist
(12c	weit
12e)	|
12g	da-
2cc}	-von!}
=63	=63
1r	.
=64	=64
*k[f#c#g#]	*
1r	.
=65	=65
4r	.
{4e	{Er
4e	ist
4e	ein
=66	=66
2a	Ko2-
4e}	-nig!}
4r	.
=67	=67
4r	.
{4e	{Er
4e	ist
4e	ein
=68	=68
2cc#	Kai-
4e	-ser!
4e	Ein
=69	=69
2ee	Kai-
4e}	-ser!}
4r	.
=70	=70
1r	.
=71	=71
4r	.
{4a	{Er
4cc#	fu2hrt
4ee	den
=72	=72
2ff#}	Krieg!}
2r	.
=73	=73
2r	.
{[2ff#	{Halt!
=74	=74
2ff#]	|
8r	.
8ff#	Wer
[4ff#	da!
=75	=75
1ff#_	|
=76	=76
2..ff#]	|
8r	.
=77	=77
[1ee	Rund'!
=78	=78
1ee_	|
=79	=79
1ee_	|
=80	=80
1ee_	|
=81	=81
2ee]}	|}
2r	.
=82	=82
1r	.
=83	=83
1r	.
=84	=84
1r	.
=85	=85
2r	.
4r	.
{12e	{Bleib'
12g#	mir
12b	vom
=86	=86
[1ee	Leib!
=87	=87
1ee_	|
=88	=88
2ee]}	|}
2r	.
=89	=89
1r	.
=90	=90
*k[]	*
*M6/4	*
1.r	.
=91	=91
2r	.
4r	.
2r	.
{4g	{Wer
=92	=92
(4f#	sang
4a)	|
4g	es
(4fn	hier?
4a)	|
4g	Wer
=93	=93
(4e	sang
4g)	|
4cc	zur
2gg}	Stund'?}
4r	.
=94	=94
1.r	.
=95	=95
4r	.
4r	.
{4dd	{Ver-
2ee-	-lor-
4ee-	-ne
=96	=96
2.ff	Feld-
2g}	-wacht}
4r	.
=97	=97
{4e	{sang
4g	es
4cc	um
[2.gg	Mit-
=98	=98
2.gg]	.
2.ee	-ter-
=99	=99
4dd#}	-nacht}
4r	.
4r	.
2r	.
4r	.
=100	=100
{[2cc	{Mit-
8cc]	.
8g	-ter-
2g	-nacht!
4r	.
=101	=101
[2cc	Mit-
8cc]	.
8g	-ter-
2g}	-nacht!}
4r	.
=102	=102
{[1.gg	{Feld-
=103	=103
2.gg]	|
2.g}	-wacht!}
=104	=104
1.r	.
=105	=105
1.r	.
==	==
*-	*-
